X:1
T:Cat in the Hopper
M:6/8
O:Traditional New England
L:1/8
K:Gdorian
|:D | "Gm"DGA B2c | "F"AFF F2A | "Gm"G2G g2e | "Dm"fdd d2e |
"F"fag fed | "Dm"dcA "Gm"B2c | "D7"d_ed d2c | "Gm"dBG G2 :|
|: g | "Gm"gdg gab | "F"agf f2a | "Gm"gag "A7"gfe | "Dm"fdd d2e |
"F"fag fed | "Dm"dcA "Eb"B2c | "Cm"d_ed "D7"d2c | "Gm"dBG G2 :|
